X:1
T: Paddy Maguire
C:
R:Jig
Q:180
K:C
M:6/8
L:1/16
|:d2B2B2 e2B2B2|d2B2B2 B2A2G2|e2f2g2 d2c2B2|A2B2G2 F2E2D2|
d2B2B2 e2B2B2|d2B2B2 B2A2G2|e2f2g2 d2c2B2|c2A2F2 G6:|
|:d2B2B2 g2f2e2|d2e2c2 B2A2G2|d2B2B2 g2f2e2|d2B2G2 A6|
d2B2B2 g2f2e2|d2e2c2 B2A2G2|e2f2g2 d2c2B2|c2B2A2 G6:|
